X:9894
T:Lord Ramsey's Reel
R:reel
D:De Dannan: Mist Covered Mountain; Begley & Cooney: Meitheal
Z:Transcribed by Henrik Norbeck.
M:C|
K:A
A,2CE FECE|AECE FECE|A,2CE FECE|FCEC B,DCB,|
A,2CE FECE|AECE FECE|D2FD CDEC|1 B,A,G,A, B,CDB,:|2 B,A,G,A, B,cd^d||
|:eA~A2 eAfA|eA~A2 efga|eA~A2 agfe|dB=GB dGBd|
eA~A2 eAfA|eA~A2 efga|agfe fedc|1 BAGA Bcd^d:|2 BAGF EDCB,||
